src/images/svg/logout.svg

<svg xmlns="http://www.w3.org/2000/svg" width="18" height="18" fill="none"><path fill="#F59256" stroke="#F59256" d="m15.3049 6.57135.0002-.00017c.0792-.07923.2077-.07936.2872.00009l1.5745 1.57447c.4901.49015.4901 1.28868 0 1.77883L15.5923 11.499c-.0399.0399-.0909.0596-.1437.0596-.0526 0-.1037-.0197-.1436-.0596h-.0001c-.0793-.0793-.0793-.2078 0-.287l.0001-.0001 1.1199-1.1201.8535-.85352H7.62891c-.11223 0-.20313-.0909-.20313-.20312 0-.11223.0909-.20313.20313-.20313h9.64949l-.8535-.85353-1.1199-1.12006-.0001-.00011c-.0793-.07924-.0793-.20774 0-.28698Zm-3.0783 7.20985v1.4063c0 1.2747-1.0378 2.3125-2.31254 2.3125h-7.0664c-1.27472 0-2.3125-1.0378-2.3125-2.3125V2.8125C.53516 1.53778 1.57294.5 2.84766.5h7.0664c1.27474 0 2.31254 1.03778 2.31254 2.3125v1.40625c0 .11222-.0909.20313-.2032.20313-.1122 0-.2031-.09091-.2031-.20313V2.8125c0-1.0515-.8547-1.90625-1.90624-1.90625h-7.0664C1.79615.90625.94141 1.761.94141 2.8125v12.375c0 1.0515.85474 1.9063 1.90625 1.9063h7.0664c1.05154 0 1.90624-.8548 1.90624-1.9063v-1.4063c0-.1122.0909-.2031.2031-.2031.1123 0 .2032.0909.2032.2031Z"/></svg>

<svg width="18" height="18" viewBox="0 0 18 18">
    <g clip-path="url(#clip0_201_1184)">
        <path
            d="M15.3049 6.57135L15.3051 6.57118C15.3843 6.49195 15.5128 6.49182 15.5923 6.57127L17.1668 8.14574C17.6569 8.63589 17.6569 9.43442 17.1668 9.92457L15.5923 11.499C15.5524 11.5389 15.5014 11.5586 15.4486 11.5586C15.396 11.5586 15.3449 11.5389 15.305 11.499L15.3049 11.499C15.2256 11.4197 15.2256 11.2912 15.3049 11.212L15.305 11.2119L16.4249 10.0918L17.2784 9.23828H16.0714H7.62891C7.51668 9.23828 7.42578 9.14738 7.42578 9.03516C7.42578 8.92293 7.51668 8.83203 7.62891 8.83203H16.0714H17.2784L16.4249 7.9785L15.305 6.85844L15.3049 6.85833C15.2256 6.77909 15.2256 6.65059 15.3049 6.57135ZM12.2266 13.7812V15.1875C12.2266 16.4622 11.1888 17.5 9.91406 17.5H2.84766C1.57294 17.5 0.535156 16.4622 0.535156 15.1875V2.8125C0.535156 1.53778 1.57294 0.5 2.84766 0.5H9.91406C11.1888 0.5 12.2266 1.53778 12.2266 2.8125V4.21875C12.2266 4.33097 12.1357 4.42188 12.0234 4.42188C11.9112 4.42188 11.8203 4.33097 11.8203 4.21875V2.8125C11.8203 1.761 10.9656 0.90625 9.91406 0.90625H2.84766C1.79615 0.90625 0.941406 1.761 0.941406 2.8125V15.1875C0.941406 16.239 1.79615 17.0938 2.84766 17.0938H9.91406C10.9656 17.0938 11.8203 16.239 11.8203 15.1875V13.7812C11.8203 13.669 11.9112 13.5781 12.0234 13.5781C12.1357 13.5781 12.2266 13.669 12.2266 13.7812Z" />
    </g>
    <defs>
        <clipPath id="clip0_201_1184">
            <rect width="18" height="18" />
        </clipPath>
    </defs>
</svg>
